X: 1
T: Indian Summer
C: Rick Gagne 11/15/87
R: jig
Z: 2014 John Chambers <jc:trillian.mit.edu>
S: Image posted on facebook by Dan Beimborn
N: The repeat notation is a bit odd.
M: 6/8
L: 1/8
K: D
A3 |\
d2d dAF | DFA dAF |["1." G2G eAA | gAA eAA ||["2." G2G edc | d2d d3 :|
e |\
f2f fed | a2a agf |["1." eAA GAA | FAA EAA ||["2." e2a agf | edc d3 :|
K: Bm
de |\
f2f fdB | FGd fed |["1." eAA GAA | FAA EAA ||["2." e2e cBA | B2B B3 :|
A2 |\
B2B FBB | DBB FGG |["1." B2B dBB | dBB fBB ||["2." e2e cBA | B2B B3 :|
